source/icons/task.svg

<svg xmlns="http://www.w3.org/2000/svg" width="8" height="8" viewBox="0 0 8 8">
  <path d="M0 0v7h7v-3.59l-1 1v1.59h-5v-5h3.59l1-1h-5.59zm7 0l-3 3-1-1-1 1 2 2 4-4-1-1z" />
</svg>

<svg xmlns="http://www.w3.org/2000/svg" width="8" height="8" viewBox="0 0 8 8"><path d="M0 0v7h7V3.41l-1 1V6H1V1h3.59l1-1H0zm7 0L4 3 3 2 2 3l2 2 4-4-1-1z"/></svg>
